X:1
T:Title
%%score ( 1 2 ) ( 3 4 )
L:1/8
Q:1/4=90
M:4/4
K:Eb
V:1 treble nm="Strings 1, Soprano"
V:2 treble 
V:3 bass nm="Strings 1, Bass"
V:4 bass 
V:1
 z4 z2 EF | [EG]2 [GB][EG] E2 EF | [EG]4 [EG]2 [EG][FA] | [GB]2 [Ac][GB] E2 DE | [DF]6 [EG][FA] | %5
 [GB]2 [Ac][GB] E2 EF | [EG]4 [EG]2 EF | [EG]2 [EB]2 E2 [DF]2 | E6 [GB]2 | [GB]2 [Ge]2 fe [Ac]2 | %10
 [GB]4 [EG]2 [GB]2 | [GB]2 [Ge]2 [GB][EG] E2 | [DF]6 [EG][FA] | [GB]2 [Ac][GB] E2 EF | %14
 [EG]4 [EG]2 EF | [EG]2 [GB][EG] E2 [DF]2 | E6 [GB]2 | [GB]2 [Ge]2 fe [Ac]2 | [GB]4 [EG]2 EF | %19
 [EG]2 [EB]2 E2 [DF]2 | E6 z2 |] %21
V:2
 x8 | x8 | x8 | z4 z2 B,2 | x8 | x8 | x8 | x8 | x8 | z4 A2 z2 | x8 | x8 | x8 | x8 | x8 | x8 | x8 | %17
 z4 A2 z2 | x8 | x8 | x8 |] %21
V:3
 z4 z2 G,A, | [E,B,]2 EB, [E,G,]2 G,A, | [E,B,]4 [E,B,]2 [E,B,]2 | %3
w: 1.~I~ *|ought~ to~ * love~ my~ *|Sav ior,~ He~|
 [E,E]2 [E,E]2 [G,B,]2 [F,A,][E,G,] | [B,,B,]6 [E,B,]2 | [E,E]2 [E,E]2 [E,G,]2 G,A, | %6
w: loved~ me~ long~ a *|go;~ Looked~|on~ my~ soul~ with~ *|
 [E,B,]4 [E,B,]2 G,A, | [E,B,]2 [E,G,]2 [B,,G,]2 [B,,A,]2 | [E,G,]6 [E,E]2 | %9
w: fa vor,~ When~ *|deep~ in~ guilt~ and~|woe.~ And~|
 [E,E]2 [E,B,]2 [A,C]2 [A,E]2 | [E,E]4 [E,B,]2 [E,E]2 | [E,E]2 [E,B,]2 [E,B,]2 [C,=A,]2 | %12
w: though~ my~ sin~ had~|grieved~ Him,~ His~|Fa ther's~ law~ had~|
 [B,,B,]6 [E,B,]2 | [E,E]2 [E,E]2 [E,G,]2 G,A, | [E,B,]4 [E,B,]2 G,A, | %15
w: crossed,~ Love~|drew~ Him~ down~ from~ *|heav en,~ To~ *|
 [E,B,]2 [E,B,]2 [B,,G,]2 [B,,A,]2 | [E,G,]6 [E,E]2 | [E,E]2 [E,B,]2 [A,C]2 [A,E]2 | %18
w: seek~ and~ save~ the~|lost;~ Love~|drew~ Him~ down~ from~|
 [E,E]4 [E,B,]2 G,A, | [E,B,]2 [E,G,]2 [B,,G,]2 [B,,A,]2 | [E,G,]6 z2 |] %21
w: heav en,~ To~ *|seek~ and~ save~ the~|lost.~|
V:4
 z4 z2 E,2 | z2 E,2 z2 E,2 | x8 | x8 | x8 | z4 z2 E,2 | z4 z2 E,2 | x8 | x8 | x8 | x8 | x8 | x8 | %13
 z4 z2 E,2 | z4 z2 E,2 | x8 | x8 | x8 | z4 z2 E,2 | x8 | x8 |] %21

